X: 1
T: Chain Cotillion  v.1
P: piffero primo b0049
O: safd
%R: march
F: http://ancients.sudburymuster.org/mus/ssp/pdf/ashgroveF.pdf
Z: 2019 John Chambers <jc:trillian.mit.edu>
M: 4/4
L: 1/8
K: G
z2 |\
G4 d4 | B2AB G2AB | c2B2 A2G2 | FGAF D3D |\
E4 F4 | GFGA G2d2 |
(cB)AG (BA)GF | G6 :: d2 |\
dedc B2d2 | dedc B2d2 | e2d2 e2f2 | g4 d2ef |\
g2fe d2cB |
e2dc B2AB | c2B2 A2G2 | F2EF D3D |\
E4 F4 | GFGA G2d2 | cBAG BAGF | G6 :|


